assets/img/twitter-black.svg

<svg fill="none" height="38" viewBox="0 0 43 38" width="43" xmlns="http://www.w3.org/2000/svg" xmlns:xlink="http://www.w3.org/1999/xlink"><filter id="a" color-interpolation-filters="sRGB" filterUnits="userSpaceOnUse" height="36.9871" width="42.821" x=".160767" y=".749634"><feFlood flood-opacity="0" result="BackgroundImageFix"/><feColorMatrix in="SourceAlpha" result="hardAlpha" type="matrix" values="0 0 0 0 0 0 0 0 0 0 0 0 0 0 0 0 0 0 127 0"/><feOffset dy="1.55713"/><feGaussianBlur stdDeviation="2.91962"/><feColorMatrix type="matrix" values="0 0 0 0 0 0 0 0 0 0 0 0 0 0 0 0 0 0 0.04 0"/><feBlend in2="BackgroundImageFix" mode="normal" result="effect1_dropShadow_239_4719"/><feColorMatrix in="SourceAlpha" result="hardAlpha" type="matrix" values="0 0 0 0 0 0 0 0 0 0 0 0 0 0 0 0 0 0 127 0"/><feOffset dy="1.16785"/><feGaussianBlur stdDeviation=".778564"/><feColorMatrix type="matrix" values="0 0 0 0 0 0 0 0 0 0 0 0 0 0 0 0 0 0 0.03 0"/><feBlend in2="effect1_dropShadow_239_4719" mode="normal" result="effect2_dropShadow_239_4719"/><feColorMatrix in="SourceAlpha" result="hardAlpha" type="matrix" values="0 0 0 0 0 0 0 0 0 0 0 0 0 0 0 0 0 0 127 0"/><feOffset dy=".389282"/><feGaussianBlur stdDeviation=".194641"/><feColorMatrix type="matrix" values="0 0 0 0 0 0 0 0 0 0 0 0 0 0 0 0 0 0 0.02 0"/><feBlend in2="effect2_dropShadow_239_4719" mode="normal" result="effect3_dropShadow_239_4719"/><feColorMatrix in="SourceAlpha" result="hardAlpha" type="matrix" values="0 0 0 0 0 0 0 0 0 0 0 0 0 0 0 0 0 0 127 0"/><feOffset dy=".194641"/><feGaussianBlur stdDeviation=".0973206"/><feColorMatrix type="matrix" values="0 0 0 0 0 0 0 0 0 0 0 0 0 0 0 0 0 0 0.1 0"/><feBlend in2="effect3_dropShadow_239_4719" mode="normal" result="effect4_dropShadow_239_4719"/><feBlend in="SourceGraphic" in2="effect4_dropShadow_239_4719" mode="normal" result="shape"/></filter><g filter="url(#a)"><path d="m37.1426 8.02791c-1.1458.50867-2.3772.85123-3.6697 1.00565 1.3197-.79024 2.3331-2.04243 2.8094-3.53468-1.2341.73185-2.6017 1.26387-4.0577 1.55064-1.1639-1.24181-2.8261-2.01778-4.6636-2.01778-4.1251 0-7.1563 3.8487-6.2246 7.84406-5.3085-.266-10.0162-2.8093-13.1681-6.67492-1.67391 2.87161-.8681 6.62822 1.9763 8.53052-1.04591-.0338-2.0321-.3206-2.89241-.7994-.07007 2.9599 2.05152 5.729 5.12421 6.3453-.8992.244-1.8841.3011-2.88584.109.81234 2.5381 3.17134 4.3846 5.96904 4.4365-2.6861 2.1061-6.07025 3.0468-9.4596 2.6472 2.82749 1.8127 6.187 2.8703 9.7943 2.8703 11.8628 0 18.5649-10.0189 18.1601-19.0048 1.2483-.9018 2.3318-2.02685 3.1882-3.30759z" fill="#000"/></g></svg>

<svg width="43" height="38" viewBox="0 0 43 38" fill="none" xmlns="http://www.w3.org/2000/svg">
<g filter="url(#filter0_dddd_239_4719)">
<path d="M37.1426 8.02791C35.9968 8.53658 34.7654 8.87914 33.4729 9.03356C34.7926 8.24332 35.806 6.99113 36.2823 5.49888C35.0482 6.23073 33.6806 6.76275 32.2246 7.04952C31.0607 5.80771 29.3985 5.03174 27.561 5.03174C23.4359 5.03174 20.4047 8.88044 21.3364 12.8758C16.0279 12.6098 11.3202 10.0665 8.1683 6.20088C6.49439 9.07249 7.3002 12.8291 10.1446 14.7314C9.09869 14.6976 8.1125 14.4108 7.25219 13.932C7.18212 16.8919 9.30371 19.661 12.3764 20.2773C11.4772 20.5213 10.4923 20.5784 9.49056 20.3863C10.3029 22.9244 12.6619 24.7709 15.4596 24.8228C12.7735 26.9289 9.38935 27.8696 6 27.47C8.82749 29.2827 12.187 30.3403 15.7943 30.3403C27.6571 30.3403 34.3592 20.3214 33.9544 11.3355C35.2027 10.4337 36.2862 9.30865 37.1426 8.02791Z" fill="black"/>
</g>
<defs>
<filter id="filter0_dddd_239_4719" x="0.160767" y="0.749634" width="42.821" height="36.9871" filterUnits="userSpaceOnUse" color-interpolation-filters="sRGB">
<feFlood flood-opacity="0" result="BackgroundImageFix"/>
<feColorMatrix in="SourceAlpha" type="matrix" values="0 0 0 0 0 0 0 0 0 0 0 0 0 0 0 0 0 0 127 0" result="hardAlpha"/>
<feOffset dy="1.55713"/>
<feGaussianBlur stdDeviation="2.91962"/>
<feColorMatrix type="matrix" values="0 0 0 0 0 0 0 0 0 0 0 0 0 0 0 0 0 0 0.04 0"/>
<feBlend mode="normal" in2="BackgroundImageFix" result="effect1_dropShadow_239_4719"/>
<feColorMatrix in="SourceAlpha" type="matrix" values="0 0 0 0 0 0 0 0 0 0 0 0 0 0 0 0 0 0 127 0" result="hardAlpha"/>
<feOffset dy="1.16785"/>
<feGaussianBlur stdDeviation="0.778564"/>
<feColorMatrix type="matrix" values="0 0 0 0 0 0 0 0 0 0 0 0 0 0 0 0 0 0 0.03 0"/>
<feBlend mode="normal" in2="effect1_dropShadow_239_4719" result="effect2_dropShadow_239_4719"/>
<feColorMatrix in="SourceAlpha" type="matrix" values="0 0 0 0 0 0 0 0 0 0 0 0 0 0 0 0 0 0 127 0" result="hardAlpha"/>
<feOffset dy="0.389282"/>
<feGaussianBlur stdDeviation="0.194641"/>
<feColorMatrix type="matrix" values="0 0 0 0 0 0 0 0 0 0 0 0 0 0 0 0 0 0 0.02 0"/>
<feBlend mode="normal" in2="effect2_dropShadow_239_4719" result="effect3_dropShadow_239_4719"/>
<feColorMatrix in="SourceAlpha" type="matrix" values="0 0 0 0 0 0 0 0 0 0 0 0 0 0 0 0 0 0 127 0" result="hardAlpha"/>
<feOffset dy="0.194641"/>
<feGaussianBlur stdDeviation="0.0973206"/>
<feColorMatrix type="matrix" values="0 0 0 0 0 0 0 0 0 0 0 0 0 0 0 0 0 0 0.1 0"/>
<feBlend mode="normal" in2="effect3_dropShadow_239_4719" result="effect4_dropShadow_239_4719"/>
<feBlend mode="normal" in="SourceGraphic" in2="effect4_dropShadow_239_4719" result="shape"/>
</filter>
</defs>
</svg>
